svgs/light/turntable.svg

<svg xmlns="http://www.w3.org/2000/svg" viewBox="0 0 576 512"><!-- Font Awesome Pro 6.0.0-alpha2 by @fontawesome - https://fontawesome.com License - https://fontawesome.com/license (Commercial License) --><path d="M224 232C210.75 232 200 242.75 200 256S210.75 280 224 280S248 269.25 248 256S237.25 232 224 232ZM512 32H64C28.625 32 0 60.625 0 96V416C0 451.375 28.625 480 64 480H512C547.375 480 576 451.375 576 416V96C576 60.625 547.375 32 512 32ZM544 416C544 433.625 529.625 448 512 448H64C46.375 448 32 433.625 32 416V96C32 78.375 46.375 64 64 64H512C529.625 64 544 78.375 544 96V416ZM224 96C135.625 96 64 167.625 64 256S135.625 416 224 416S384 344.375 384 256S312.375 96 224 96ZM224 384C153.25 384 96 326.75 96 256S153.25 128 224 128S352 185.25 352 256C351.875 326.625 294.625 383.875 224 384ZM484.5 304.5H484.625L480 302.188V112C480 103.2 472.8 96 464 96S448 103.2 448 112V288C434.625 285.125 420.875 291.125 414 303L414.5 303.25C410 310.624 402.501 325.123 387.377 355.371C379.49 371.144 385.848 390.326 401.606 398.24L430.25 412.625C434.75 414.875 439.625 416 444.5 416C448 416 451.5 415.5 454.75 414.375C462.75 411.75 469.375 405.875 473.25 398.375L498.875 347.5C506.75 331.625 500.375 312.375 484.5 304.5ZM444.625 384L416 369.75C416 369.75 439.625 323 441.75 319L441.625 318.875V318.75L470.25 333.125L444.625 384Z"/></svg>

<svg xmlns="http://www.w3.org/2000/svg" viewBox="0 0 576 512"><!--! Font Awesome Pro 6.3.0 by @fontawesome - https://fontawesome.com License - https://fontawesome.com/license (Commercial License) Copyright 2023 Fonticons, Inc. --><path d="M224 232C210.8 232 200 242.8 200 256S210.8 280 224 280S248 269.3 248 256S237.3 232 224 232zM512 32H64C28.63 32 0 60.63 0 96v320c0 35.38 28.62 64 64 64h448c35.38 0 64-28.62 64-64V96C576 60.63 547.4 32 512 32zM544 416c0 17.62-14.38 32-32 32H64c-17.62 0-32-14.38-32-32V96c0-17.62 14.38-32 32-32h448c17.62 0 32 14.38 32 32V416zM224 96C135.6 96 64 167.6 64 256s71.63 160 160 160s160-71.63 160-160S312.4 96 224 96zM224 384c-70.75 0-128-57.25-128-128s57.25-128 128-128s128 57.25 128 128C351.9 326.6 294.6 383.9 224 384zM484.5 304.5L480 302.2V112C480 103.2 472.8 96 464 96S448 103.2 448 112V288c-13.38-2.875-27.12 3.125-34 15l.5001 .25c-4.5 7.374-11.1 21.87-27.12 52.12c-7.887 15.77-1.529 34.96 14.23 42.87l28.64 14.38C434.8 414.9 439.6 416 444.5 416c3.5 0 7-.5 10.25-1.625c8-2.625 14.62-8.5 18.5-16l25.62-50.88C506.8 331.6 500.4 312.4 484.5 304.5zM444.6 384L416 369.8c0 0 23.62-46.75 25.75-50.75l28.5 14.12L444.6 384z"/></svg>
